!!!OTL: Der Freier.
!!!OTL-incipit: DES ABENDS ALS ICH SCHLAFEN GING
!!!ARE: Europa, Mitteleuropa, Deutschland, Nord - Deutschland
!!!SCT: Z1180
!!!TXL: @@DE
!!!YEM: Copyright 1995, estate of Helmut Schaffrath.
**kern	**text
*ICvox	*
*M4/4	*
*met(c)	*
*k[f#]	*
*G:	*
!LO:TX:a:t=Aus Norddeutſchland.	!
{4d	Des
=1	=1
4.g	A-
8a	-bends
4b/	als
4cc/	ich
=2	=2
4.dd/	ſchla-
8ee/	-fen
4dd/}	ging,
{4dd/	mein
=3	=3
8ddqq	.
4.cc/	Schatʒ
8b/	ſtand
4cc/	an
4dd/	der
=4	=4
2b/	Thür,
4r}	.
{4d	Des
=5	=5
4.g	A-
8a	-bends
4b/	als
4cc/	ich
=6	=6
4.dd/	ſchla-
8ee/	-fen
4dd/}	ging,
{4dd/	mein
=7	=7
8ddqq	.
4.cc/	Schatʒ
8b/	ſtand
4cc/	an
4dd/	der
=8	=8
2b/	Thür,
4r}	.
{4dd/	mit
=9	=9
8ee/L	ſei-
8ddJ	.
8dd/L	-nem
8bJ	.
4cc/	güld-
4dd/	-nen
=10	=10
4b/	Rin-
4dd/	-ge-
4b/}	-lein
{4g	ver-
=11	=11
4a	-ſchloß
4cc/	er
4a	mir
4a	die
=12	=12
(<4b/	Thür,
4ee/	.
4dd/;)}	.
{4dd/	mit
=13	=13
8ee/L	ſei-
8ddJ	.
8dd/L	-nem
8bJ	.
4cc/	güld-
4dd/	-nen
=14	=14
4b/	Rin-
4dd/	-ge-
4b/}	-lein
{4g	ver-
=15	=15
4a	-ſchloß
4cc/	er
4a	mir
4f#	die
=16	=16
2g	Thür.
4r}	.
==	==
!!!AGN: Liebes - Lied, verlassene Liebe
!!!ONB: ESAC (Essen Associative Code) Database: ZUCCAL
!!!AMT: simple quadruple
!!!AIN: vox
!!!EED: Helmut Schaffrath
!!!EEV: 1.0
!!!RDF**kern: <= below
!!!GTL: V. Lieder der Minne.
!!!URL-scan: https://www.digitale-sammlungen.de/de/view/bsb11160573?page=374
!!!ENC: Anna Maria Matuszewska
!!!EEV: 2025/02/05
*-	*-
